X: 17882
T: Horse's Leotard, The
R: jig
M: 6/8
K: Gmixolydian
|:G3 dcA|cde fef|G2d dcA|cfd cAd|
G2G dcA|cde f2g|agf dfd|cfd cAF:|
|:de^f g2g|ag^f g2f|de^f g2g|bag ag^f|
bBb aba|g^fd =f2c|cde f2d|cfd cAF:|

